X:1
T:Title
%%score { 1 | 2 }
L:1/8
M:4/4
K:Bb
V:1 treble nm="Grand Piano"
V:2 bass 
V:1
 z4 z2[Q:1/4=100] [DF]2 | [DF]2 [DB]2 [Fd]3 [FB] | G2 B2 F3 [DF] | %3
 [DB]>[DB] [DB]>[DB] [Fd]2 [FB]2 |[M:3/4] [Fc]6 |[M:1/4] [DF]2 |[M:4/4] [DF]2 [DB]2 [Fd]3 [FB] | %7
 G2 B2 F3 [DF] | B>B B>B d2 c2 |[M:3/4] [DB]6 |[M:1/4] [FB]2 | %11
[M:4/4] [Fd]>[Fd] [Fd]>[Fd] [Fd]2 [Fc][B,^FB] | [B,GB]2 [B,EG]2 [DF]3 [B,DB] | %13
 [CFA]2 [CFA]2 [CFA]3 [A,EG] | [B,DF]2 [B,DF]2 [B,DF]3 [DFB] | %15
 [Fd]>[Fd] [Fd]>[Fd] [Fd]2 [Fc][^FB] | [GB]2 G2 F3 [DF] | B>B B>B d2 c2 |[M:3/4] [DB]6 |] %19
V:2
 z4 z2 [B,,B,]2 | [B,,B,]2 [B,,B,]2 [B,,B,]3 [D,B,] | [E,B,E]2 [G,B,E]2 [B,D]3 [B,,B,] | %3
 [B,,F,]>[B,,F,] [B,,F,]>[B,,F,] [B,,B,]2 [D,B,]2 |[M:3/4] [F,A,]6 |[M:1/4] [B,,B,]2 | %6
[M:4/4] [B,,B,]2 [B,,B,]2 [B,,B,]3 [D,B,] | [E,B,E]2 [G,B,E]2 [B,D]3 [B,,B,] | %8
 [F,B,D]>[F,B,D] [F,B,D]>[F,B,D] [F,B,F]2 [F,A,E]2 |[M:3/4] [B,,B,]6 |[M:1/4] [B,,B,]2 | %11
[M:4/4] [B,,B,]>[B,,B,] [B,,B,]>[B,,B,] [B,,B,]2 [C,B,]D, | E,2 G,2 B,3 B,, | F,2 F,2 F,3 F, | %14
 B,,2 B,,2 B,,3 B,, | [B,,B,]>[B,,B,] [B,,B,]>[B,,B,] [B,,B,]2 [C,B,][D,B,] | %16
 [E,B,]2 [G,B,E]2 [B,D]3 [B,,B,] | [F,B,D]>[F,B,D] [F,B,D]>[F,B,D] [F,B,F]2 [F,A,E]2 | %18
[M:3/4] [B,,B,]6 |] %19

